assets/icons/create.svg

<svg width="18" height="18" viewBox="0 0 18 18" fill="none" xmlns="http://www.w3.org/2000/svg">
<path fill-rule="evenodd" clip-rule="evenodd" d="M6.97869 13.0931C5.7048 13.4964 4.50486 12.2974 4.90725 11.0231L5.41284 9.42209C5.49117 9.17404 5.62881 8.94879 5.81386 8.7659L11.6477 3H3.5C2.11929 3 1 4.11929 1 5.5V14.5C1 15.8807 2.11929 17 3.5 17H12.5C13.8807 17 15 15.8807 15 14.5V6.35333L9.23482 12.1855C9.05227 12.3702 8.8275 12.5077 8.57988 12.5861L6.97869 13.0931ZM14.7696 4.45036C14.7699 4.45088 14.7701 4.45141 14.7704 4.45194L8.16805 11.131C8.15664 11.1426 8.14259 11.1512 8.12712 11.1561L6.52593 11.663C6.50996 11.6681 6.49412 11.6704 6.47877 11.6702C6.4934 11.6701 6.50846 11.6678 6.52363 11.663L8.12481 11.1561C8.14029 11.1512 8.15434 11.1426 8.16575 11.131L14.7696 4.45036Z" fill="_COLOR_VAR_"/>
<mask id="path-2-outside-1_5841_49683" maskUnits="userSpaceOnUse" x="4.32812" y="-0.25" width="14" height="14" fill="black">
<rect fill="white" x="4.32812" y="-0.25" width="14" height="14"/>
<path fill-rule="evenodd" clip-rule="evenodd" d="M6.33532 11.4748L6.84092 9.87377C6.84581 9.85827 6.85442 9.84419 6.86598 9.83276L13.3711 3.40342L14.5949 4.62717L8.16575 11.131C8.15434 11.1426 8.14029 11.1512 8.12481 11.1561L6.52363 11.663C6.40782 11.6997 6.29874 11.5907 6.33532 11.4748ZM15.1221 4.09377L16.0018 3.20384C16.3319 2.86996 16.3304 2.33224 15.9985 2.00019C15.6665 1.66804 15.1286 1.6664 14.7946 1.99651L13.9045 2.8762L15.1221 4.09377Z"/>
</mask>
<path fill-rule="evenodd" clip-rule="evenodd" d="M6.33532 11.4748L6.84092 9.87377C6.84581 9.85827 6.85442 9.84419 6.86598 9.83276L13.3711 3.40342L14.5949 4.62717L8.16575 11.131C8.15434 11.1426 8.14029 11.1512 8.12481 11.1561L6.52363 11.663C6.40782 11.6997 6.29874 11.5907 6.33532 11.4748ZM15.1221 4.09377L16.0018 3.20384C16.3319 2.86996 16.3304 2.33224 15.9985 2.00019C15.6665 1.66804 15.1286 1.6664 14.7946 1.99651L13.9045 2.8762L15.1221 4.09377Z" fill="_COLOR_VAR_"/>
<path d="M6.84092 9.87377L8.27129 10.3255L8.2713 10.3255L6.84092 9.87377ZM6.33532 11.4748L7.76569 11.9265L7.76569 11.9265L6.33532 11.4748ZM6.86598 9.83276L7.92038 10.8996L7.92041 10.8996L6.86598 9.83276ZM13.3711 3.40342L14.4318 2.34276L13.3773 1.2883L12.3167 2.33656L13.3711 3.40342ZM14.5949 4.62717L15.6616 5.68168L16.7101 4.62106L15.6555 3.56651L14.5949 4.62717ZM8.16575 11.131L7.09897 10.0765L7.09897 10.0765L8.16575 11.131ZM8.12481 11.1561L7.67207 9.72602L7.67205 9.72602L8.12481 11.1561ZM6.52363 11.663L6.97639 13.0931L6.9764 13.093L6.52363 11.663ZM15.1221 4.09377L14.0615 5.15444L15.1283 6.22124L16.1889 5.14829L15.1221 4.09377ZM16.0018 3.20384L17.0686 4.25835L17.0686 4.25835L16.0018 3.20384ZM15.9985 2.00019L17.0594 0.939786L17.0594 0.939785L15.9985 2.00019ZM14.7946 1.99651L13.7402 0.929657L13.7402 0.929657L14.7946 1.99651ZM13.9045 2.8762L12.8501 1.80934L11.777 2.86997L12.8439 3.93686L13.9045 2.8762ZM5.41054 9.42207L4.90494 11.0231L7.76569 11.9265L8.27129 10.3255L5.41054 9.42207ZM5.81158 8.76588C5.62652 8.94877 5.48887 9.17402 5.41054 9.42209L8.2713 10.3255C8.20276 10.5425 8.08232 10.7396 7.92038 10.8996L5.81158 8.76588ZM12.3167 2.33656L5.81155 8.7659L7.92041 10.8996L14.4255 4.47028L12.3167 2.33656ZM15.6555 3.56651L14.4318 2.34276L12.3104 4.46408L13.5342 5.68783L15.6555 3.56651ZM9.23252 12.1855L15.6616 5.68168L13.5281 3.57266L7.09897 10.0765L9.23252 12.1855ZM8.57756 12.5861C8.82518 12.5077 9.04997 12.3702 9.23252 12.1855L7.09897 10.0765C7.25871 9.91492 7.45539 9.79462 7.67207 9.72602L8.57756 12.5861ZM6.9764 13.093L8.57758 12.5861L7.67205 9.72602L6.07087 10.233L6.9764 13.093ZM4.90494 11.0231C4.50256 12.2974 5.7025 13.4964 6.97639 13.0931L6.07087 10.233C7.11314 9.90299 8.09492 10.884 7.76569 11.9265L4.90494 11.0231ZM16.1889 5.14829L17.0686 4.25835L14.9351 2.14933L14.0553 3.03926L16.1889 5.14829ZM17.0686 4.25835C17.9786 3.33782 17.9745 1.85527 17.0594 0.939786L14.9376 3.06059C14.6863 2.8092 14.6852 2.4021 14.9351 2.14933L17.0686 4.25835ZM17.0594 0.939785C16.1441 0.0240366 14.661 0.019512 13.7402 0.929657L15.849 3.06337C15.5962 3.31329 15.1889 3.31205 14.9376 3.06059L17.0594 0.939785ZM13.7402 0.929657L12.8501 1.80934L14.959 3.94305L15.849 3.06337L13.7402 0.929657ZM12.8439 3.93686L14.0615 5.15444L16.1828 3.03311L14.9652 1.81554L12.8439 3.93686Z" fill="white" mask="url(#path-2-outside-1_5841_49683)"/>
</svg>

<svg xmlns="http://www.w3.org/2000/svg" width="18" height="18"><path fill-rule="evenodd" d="M6.979 13.093c-1.274.403-2.474-.796-2.072-2.07l.506-1.6a1.6 1.6 0 0 1 .4-.657L11.649 3H3.5A2.5 2.5 0 0 0 1 5.5v9A2.5 2.5 0 0 0 3.5 17h9a2.5 2.5 0 0 0 2.5-2.5V6.353l-5.765 5.833a1.6 1.6 0 0 1-.655.4zm7.79-8.643.001.002-6.602 6.679a.1.1 0 0 1-.04.025l-1.602.507h-.002l1.6-.507a.1.1 0 0 0 .042-.025z" clip-rule="evenodd"/><mask id="a" width="14" height="14" x="4.328" y="-.25" maskUnits="userSpaceOnUse"><path d="M4.328-.25h14v14h-14z"/><path fill-rule="evenodd" d="m6.335 11.475.506-1.601a.1.1 0 0 1 .025-.041l6.505-6.43 1.224 1.224-6.43 6.504a.1.1 0 0 1-.04.025l-1.601.507a.15.15 0 0 1-.189-.188m8.787-7.381.88-.89a.854.854 0 0 0-1.207-1.207l-.89.88z" clip-rule="evenodd"/></mask><path fill-rule="evenodd" d="m6.335 11.475.506-1.601a.1.1 0 0 1 .025-.041l6.505-6.43 1.224 1.224-6.43 6.504a.1.1 0 0 1-.04.025l-1.601.507a.15.15 0 0 1-.189-.188m8.787-7.381.88-.89a.854.854 0 0 0-1.207-1.207l-.89.88z" clip-rule="evenodd"/><path d="m6.84 9.874 1.431.451zm-.505 1.6 1.43.453zm.531-1.641L7.92 10.9zm6.505-6.43 1.06-1.06-1.054-1.055-1.06 1.049zm1.224 1.224 1.067 1.055 1.048-1.06-1.055-1.055zm-6.43 6.504L7.1 10.076zm-.04.025-.453-1.43zm-1.601.507.452 1.43zm8.598-7.57-1.06 1.061 1.066 1.067 1.06-1.073zm.88-.89 1.067 1.055zM15.999 2l1.06-1.06zm-1.204-.003L13.74.93zm-.89.88L12.85 1.808 11.777 2.87l1.067 1.067zM5.41 9.421l-.506 1.601 2.86.904.506-1.601zm.4-.656a1.6 1.6 0 0 0-.4.656l2.86.903a1.4 1.4 0 0 1-.35.575zm6.506-6.43-6.505 6.43L7.92 10.9l6.506-6.43zm3.339 1.23-1.224-1.223-2.122 2.121 1.224 1.224zm-6.423 8.62 6.429-6.504-2.134-2.11L7.1 10.077zm-.655.4a1.6 1.6 0 0 0 .655-.4l-2.134-2.11a1.4 1.4 0 0 1 .573-.35zm-1.602.507 1.602-.507-.906-2.86-1.601.507zm-2.071-2.07c-.402 1.274.797 2.473 2.071 2.07l-.905-2.86c1.042-.33 2.024.651 1.695 1.694zm11.284-5.875.88-.89-2.134-2.109-.88.89zm.88-.89c.91-.92.906-2.403-.01-3.318l-2.121 2.12a.646.646 0 0 1-.003-.91zM17.059.94A2.354 2.354 0 0 0 13.74.93l2.109 2.133a.646.646 0 0 1-.911-.002zM13.74.93l-.89.88 2.109 2.133.89-.88zm-.896 3.007 1.218 1.217 2.12-2.12-1.217-1.218z" mask="url(#a)"/></svg>
